client/data/interface-icons/0.svg

<svg xmlns="http://www.w3.org/2000/svg" xmlns:lc="http://www.librecad.org" width="200mm" height="200mm" viewBox="-5 -5 210 210"><g lc:layername="0" lc:is_locked="false" lc:is_construction="false" fill="none" stroke="#fff" stroke-width="4"><path d="M0 20v160M20 200h160M200 180V20M180 0H20M20 0A20 20 0 0 0 0 20M0 180a20 20 0 0 0 20 20M180 200a20 20 0 0 0 20-20M200 20a20 20 0 0 0-20-20M140 120V40a20 20 0 0 0-20-20H80a20 20 0 0 0-20 20v120a20 20 0 0 0 20 20h40a20 20 0 0 0 20-20v-40z"/><path d="M80 90v40l30-90H80v50zM120 140V70l-30 90h30v-20z"/></g></svg>

<?xml version="1.0"?>
<svg xmlns="http://www.w3.org/2000/svg" xmlns:lc="http://www.librecad.org" xmlns:xlink="http://www.w3.org/1999/xlink" width="200mm" height="200mm" viewBox="-5 -5 210 210">
    <g lc:layername="0" lc:is_locked="false" lc:is_construction="false" fill="none" stroke="white" stroke-width="4">
        <line x1="0" y1="20" x2="0" y2="180"/>
        <line x1="20" y1="200" x2="180" y2="200"/>
        <line x1="200" y1="180" x2="200" y2="20"/>
        <line x1="180" y1="0" x2="20" y2="0"/>
        <path d="M20,0 A20,20 0 0,0 0,20 "/>
        <path d="M0,180 A20,20 0 0,0 20,200 "/>
        <path d="M180,200 A20,20 0 0,0 200,180 "/>
        <path d="M200,20 A20,20 0 0,0 180,0 "/>
        <path d="M140,120 L140,100 L140,80 L140,40 A20,20 0 0,0 120,20 L80,20 A20,20 0 0,0 60,40 L60,80 L60,90 L60,140 L60,160 A20,20 0 0,0 80,180 L120,180 A20,20 0 0,0 140,160 L140,120 Z "/>
        <path d="M80,90 L80,130 L110,40 L80,40 L80,80 L80,90 Z "/>
        <path d="M120,140 L120,110 L120,90 L120,80 L120,70 L90,160 L120,160 L120,140 Z "/>
    </g>
</svg>
